X: 5555
T: Burren, The
R: reel
M: 4/4
K: Dmajor
|A3B AF F2|AFAd f3g|afdf efdB|A3F EFDF|
A3B AF F2|AFAd f3g|afdf efdB|Adfe d2:|
|:e2|fded BdAB|dcdf a2 fa|g2fg edBc|dBAF EFDF|
A3B AF F2|AFAd f3g|afdf efdB|Adfe d2:|

